X:774
T:The rakes of Clonmel
T:The boys of the Lough
R:Jig
O:Ireland
B:O'Neill's 902
S:O'Neill's 902
Z:Transcription, slight arr., chords:Mike Long
M:6/8
L:1/8
K:G
(A/B/)|\
"Am"cBA "G"GED|"Am"EAA A2B|cBA edc|"G"BGG G2(e/f/)|\
"G"gfg "C"efg|"G"dBG Bcd|"Am"ecA "G"GED|"Am"EAA A2:|
a|\
"Am"aea aed|cAA A2(e/f/)|"G"gea gdc|BGG G2f|\
"G"gea "C"g=fe|"G"dBG Bcd|"Am"ecA "G"GED|"Am"EAA A2||
a|\
"Am"aea aed|cAA A2(e/f/)|"G"gea gdc|BGG G2B|\
"C"cBc "G"d^cd|"Am"edc "G"Bcd|"Am"ecA "G"GED|"Am"EAA A2|]
P:Alt. B
|:B|\
"Am"Aaa a^ga|"Em"bge e2f|"G"gfg bge|dBG G2B|\
"C"cBc "G"d^cd|"Am"e=fe "G"Bcd|"Am"ecA "G"GED|"Am"EAA A2:|
